X: 1
T: Balkan Hills Schottische, The
I: Balkan Hills Schottische, TheM-4Dschottische
C: M-4
M: C|
Z: Transcribed to abc by Mary Lou Knack
R: schottishe
K: D
a3g|: "D"fAfe d2A2| "G"BGdB "D"A2de| fAAa gfed| "A"f2e2 e2ag|
      "D"fAfe d2A2| "G"BGdB "D"A2de| faga "A"gecA|1 "D"d4 d2 z2:|2 "D"d4 d2|]
\
f3g |: "D"adfa f2ed| "G"BGdB "D"A2fg| adfa gfed| "A"f2e2 e2fg|
       "D"adfa f2ed| "G"BGdB "D"A2de|1 faga "A"gecA| "D"d4 d2 z2:|2 "D"fAAa "A"gecA| "D"d4 d2|]
\
AB|: "D"d2e2 f2ed| "G"BGdB "D"A2de| fAAa gfed| "A"f2e2 e2AB|
     "D"d2e2 f2ed| "G"BGdB "D"A2de| faga "A"gecA| "D"d4 d2 z2:|
%%text 9/1/98.  Formerly R-11
